blockchains/ethereum/assets/0x4D807509aECe24C0fa5A102b6a3B059Ec6E14392/logo.svg

<svg fill="none" height="250" viewBox="0 0 250 250" width="250" xmlns="http://www.w3.org/2000/svg" xmlns:xlink="http://www.w3.org/1999/xlink"><linearGradient id="a" gradientUnits="userSpaceOnUse" x1="61.3196" x2="188.197" y1="187.054" y2="60.1792"><stop offset="0" stop-color="#00aee9"/><stop offset="1" stop-color="#69fabd"/></linearGradient><clipPath id="b"><path d="m0 0h250v250h-250z"/></clipPath><g clip-path="url(#b)"><circle cx="125" cy="125" fill="#fff" r="125"/><path d="m166.457 52.0859c-8.329-.0064-16.321 3.3014-22.221 9.1975-5.899 5.8961-9.225 13.8987-9.246 22.251v34.8686c-3.241.219-6.555.358-9.99.358s-6.732.138-9.989.333v-35.5596c-.133-8.2799-3.506-16.1757-9.392-21.9841-5.8864-5.8084-13.8137-9.0637-22.072-9.0637-8.2582 0-16.1855 3.2553-22.0717 9.0637-5.8861 5.8084-9.2593 13.7042-9.3918 21.9841v83.3376c.1325 8.279 3.5057 16.175 9.3918 21.984 5.8862 5.808 13.8135 9.063 22.0717 9.063 8.2583 0 16.1856-3.255 22.072-9.063 5.886-5.809 9.259-13.705 9.392-21.984v-34.869c3.24-.22 6.554-.358 9.989-.358s6.733-.138 9.99-.333v35.56c.132 8.279 3.505 16.175 9.392 21.984 5.886 5.808 13.813 9.063 22.071 9.063 8.259 0 16.186-3.255 22.072-9.063 5.886-5.809 9.259-13.705 9.392-21.984v-83.3376c-.022-8.3509-3.346-16.3522-9.244-22.2481s-13.888-9.2047-22.216-9.2004zm-82.914 12.8849c4.9158-.0022 9.6316 1.9511 13.1129 5.4313 3.4811 3.4802 5.4441 8.203 5.4561 13.1323v36.9236c-9.205 1.338-18.1945 3.887-26.7357 7.58-3.7006 1.629-7.1843 3.714-10.3704 6.207v-50.7106c.0129-4.9236 1.9708-9.6416 5.4451-13.1208 3.4743-3.4793 8.1818-5.4364 13.092-5.4428zm18.569 101.9012c0 4.938-1.956 9.674-5.4384 13.166-3.4825 3.492-8.2057 5.454-13.1306 5.454s-9.6481-1.962-13.1306-5.454c-3.4824-3.492-5.4389-8.228-5.4389-13.166v-8.36c0-7.385 5.8334-14.38 15.6123-18.734 6.8904-2.981 14.1202-5.101 21.5262-6.313zm64.345 18.563c-4.915.002-9.631-1.951-13.113-5.431-3.481-3.48-5.443-8.203-5.456-13.132v-36.925c9.205-1.337 18.195-3.886 26.736-7.579 3.701-1.629 7.184-3.714 10.37-6.207v50.711c-.012 4.923-1.97 9.641-5.445 13.12-3.474 3.48-8.181 5.437-13.092 5.443zm2.958-74.855c-6.891 2.98-14.121 5.1-21.527 6.312v-33.3576c0-4.9385 1.956-9.6747 5.439-13.1667 3.482-3.492 8.205-5.4538 13.13-5.4538s9.648 1.9618 13.131 5.4538c3.482 3.492 5.439 8.2282 5.439 13.1667v8.3597c0 7.3523-5.834 14.3469-15.612 18.6859z" fill="url(#a)"/></g></svg>

<svg width="250" height="250" viewBox="0 0 250 250" fill="none" xmlns="http://www.w3.org/2000/svg">
<g clip-path="url(#clip0_50_11746)">
<circle cx="125" cy="125" r="125" fill="white"/>
<path d="M166.457 52.0859C158.128 52.0795 150.136 55.3873 144.236 61.2834C138.337 67.1795 135.011 75.1821 134.99 83.5344V118.403C131.749 118.622 128.435 118.761 125 118.761C121.565 118.761 118.268 118.899 115.011 119.094V83.5344C114.878 75.2545 111.505 67.3587 105.619 61.5503C99.7326 55.7419 91.8053 52.4866 83.547 52.4866C75.2888 52.4866 67.3615 55.7419 61.4753 61.5503C55.5892 67.3587 52.216 75.2545 52.0835 83.5344V166.872C52.216 175.151 55.5892 183.047 61.4753 188.856C67.3615 194.664 75.2888 197.919 83.547 197.919C91.8053 197.919 99.7326 194.664 105.619 188.856C111.505 183.047 114.878 175.151 115.011 166.872V132.003C118.251 131.783 121.565 131.645 125 131.645C128.435 131.645 131.733 131.507 134.99 131.312V166.872C135.122 175.151 138.495 183.047 144.382 188.856C150.268 194.664 158.195 197.919 166.453 197.919C174.712 197.919 182.639 194.664 188.525 188.856C194.411 183.047 197.784 175.151 197.917 166.872V83.5344C197.895 75.1835 194.571 67.1822 188.673 61.2863C182.775 55.3904 174.785 52.0816 166.457 52.0859ZM83.543 64.9708C88.4588 64.9686 93.1746 66.9219 96.6559 70.4021C100.137 73.8823 102.1 78.6051 102.112 83.5344V120.458C92.907 121.796 83.9175 124.345 75.3763 128.038C71.6757 129.667 68.192 131.752 65.0059 134.245V83.5344C65.0188 78.6108 66.9767 73.8928 70.451 70.4136C73.9253 66.9343 78.6328 64.9772 83.543 64.9708ZM102.112 166.872C102.112 171.81 100.156 176.546 96.6736 180.038C93.1911 183.53 88.4679 185.492 83.543 185.492C78.6181 185.492 73.8949 183.53 70.4124 180.038C66.93 176.546 64.9735 171.81 64.9735 166.872V158.512C64.9735 151.127 70.8069 144.132 80.5858 139.778C87.4762 136.797 94.706 134.677 102.112 133.465V166.872ZM166.457 185.435C161.542 185.437 156.826 183.484 153.344 180.004C149.863 176.524 147.901 171.801 147.888 166.872V129.947C157.093 128.61 166.083 126.061 174.624 122.368C178.325 120.739 181.808 118.654 184.994 116.161V166.872C184.982 171.795 183.024 176.513 179.549 179.992C176.075 183.472 171.368 185.429 166.457 185.435ZM169.415 110.58C162.524 113.56 155.294 115.68 147.888 116.892V83.5344C147.888 78.5959 149.844 73.8597 153.327 70.3677C156.809 66.8757 161.532 64.9139 166.457 64.9139C171.382 64.9139 176.105 66.8757 179.588 70.3677C183.07 73.8597 185.027 78.5959 185.027 83.5344V91.8941C185.027 99.2464 179.193 106.241 169.415 110.58Z" fill="url(#paint0_linear_50_11746)"/>
</g>
<defs>
<linearGradient id="paint0_linear_50_11746" x1="61.3196" y1="187.054" x2="188.197" y2="60.1792" gradientUnits="userSpaceOnUse">
<stop stop-color="#00AEE9"/>
<stop offset="1" stop-color="#69FABD"/>
</linearGradient>
<clipPath id="clip0_50_11746">
<rect width="250" height="250" fill="white"/>
</clipPath>
</defs>
</svg>
